; generated by PrusaSlicer 2.1.0+win64 on 2021-02-07 at 07:13:07 UTC

; 

; external perimeters extrusion width = 0.45mm
; perimeters extrusion width = 0.45mm
; infill extrusion width = 0.45mm
; solid infill extrusion width = 0.45mm
; top infill extrusion width = 0.40mm
; support material extrusion width = 0.35mm
; first layer extrusion width = 0.42mm

M73 P0 R47
M201 X9000 Y9000 Z500 E10000 ; sets maximum accelerations, mm/sec^2
M203 X500 Y500 Z12 E120 ; sets maximum feedrates, mm/sec
M204 P2000 R1500 T2000 ; sets acceleration (P, T) and retract acceleration (R), mm/sec^2
M205 X10.00 Y10.00 Z0.20 E2.50 ; sets the jerk limits, mm/sec
M205 S0 T0 ; sets the minimum extruding and travel feed rate, mm/sec
M107
M862.3 P "MK2S" ; printer model check
M862.1 P0.4 ; nozzle diameter check
M115 U3.2.3 ; tell printer latest fw version
G90 ; use absolute coordinates
M83 ; extruder relative mode
M204 S2000 T1500 ; MK2 firmware only supports the old M204 format
M104 S215 ; set extruder temp
M140 S60 ; set bed temp
M190 S60 ; wait for bed temp
M109 S215 ; wait for extruder temp
G28 W ; home all without mesh bed level
G80 ; mesh bed leveling
G1 Y-3.0 F1000.0 ; go outside print area
G92 E0.0
G1 X60.0 E9.0  F1000.0 ; intro line
M73 P0 R47
G1 X100.0 E12.5 F1000.0 ; intro line
G92 E0.0
G21 ; set units to millimeters
G90 ; use absolute coordinates
M83 ; use relative distances for extrusion
M900 K30 ; Filament gcode
;BEFORE_LAYER_CHANGE
G92 E0.0
;0.2


G1 E-0.80000 F2100.00000
G1 Z0.600 F10800.000
;AFTER_LAYER_CHANGE
;0.2
G1 X97.413 Y80.467
G1 Z0.200
G1 E0.80000 F2100.00000
M204 S1000
G1 F1200
G1 X98.259 Y79.834 E0.03315
G1 X103.202 Y76.986 E0.17886
G1 X103.945 Y76.672 E0.02532
G1 X104.730 Y76.479 E0.02532
G1 X132.880 Y75.388 E0.88329
G1 X148.593 Y75.762 E0.49282
G1 X149.624 Y75.899 E0.03263
G1 X150.870 Y76.377 E0.04182
G1 X155.937 Y79.331 E0.18391
G1 X156.932 Y80.212 E0.04165
G1 X157.667 Y81.325 E0.04182
G1 X158.044 Y82.384 E0.03523
G1 X158.179 Y83.499 E0.03523
G1 X158.060 Y122.428 E1.22060
G1 X157.993 Y123.194 E0.02410
G1 X157.813 Y123.935 E0.02392
G1 X157.521 Y124.646 E0.02410
G1 X157.129 Y125.301 E0.02392
G1 X156.514 Y126.020 E0.02967
G1 X155.781 Y126.610 E0.02949
G1 X150.761 Y129.518 E0.18191
G1 X149.601 Y129.986 E0.03922
G1 X148.361 Y130.156 E0.03922
G1 X134.567 Y130.314 E0.43254
G1 X119.649 Y130.321 E0.46774
G1 X104.308 Y129.693 E0.48142
G1 X103.344 Y129.522 E0.03071
G1 X102.430 Y129.170 E0.03071
G1 X97.099 Y126.078 E0.19322
G1 X96.202 Y125.270 E0.03784
G1 X95.524 Y124.279 E0.03766
G1 X95.096 Y123.157 E0.03766
G1 X94.943 Y121.965 E0.03766
G1 X94.944 Y116.407 E0.17427
G1 X95.784 Y83.983 E1.01699
G1 X95.867 Y83.263 E0.02270
G1 X96.053 Y82.558 E0.02288
G1 X96.338 Y81.886 E0.02288
G1 X96.712 Y81.267 E0.02270
G1 X97.373 Y80.513 E0.03144
G1 F8640
G1 X98.259 Y79.834 E-0.25767
G1 X100.144 Y78.748 E-0.50233
G1 E-0.04000 F2100.00000
G1 Z0.800 F10800.000
G1 X140.864 Y79.859
G1 Z0.200
G1 E0.80000 F2100.00000
G1 F1200
G1 X141.097 Y79.662 E0.00954
G1 X146.446 Y76.562 E0.19386
G1 X147.828 Y76.164 E0.04507
G1 X149.252 Y76.193 E0.04466
G1 X150.480 Y76.585 E0.04043
G1 X155.799 Y79.673 E0.19284
G1 X156.872 Y80.720 E0.04701
G1 X157.465 Y81.767 E0.03773
G1 X157.789 Y83.062 E0.04186
G1 X157.802 Y89.330 E0.19653
G1 X157.518 Y90.596 E0.04067
G1 X156.850 Y91.809 E0.04341
G1 X155.943 Y92.716 E0.04024
G1 X154.494 Y93.574 E0.05279
G1 X155.101 Y93.940 E0.02225
G1 X156.014 Y94.823 E0.03981
G1 X156.662 Y95.925 E0.04009
G1 X156.986 Y97.123 E0.03891
G1 X157.011 Y103.568 E0.20209
G1 X156.745 Y104.759 E0.03827
G1 X156.131 Y105.918 E0.04111
G1 X155.130 Y106.935 E0.04473
G1 X150.096 Y109.864 E0.18261
G1 X155.670 Y113.082 E0.20179
G1 X156.784 Y114.176 E0.04896
G1 X157.393 Y115.303 E0.04017
G1 X157.684 Y116.590 E0.04137
G1 X157.670 Y122.871 E0.19696
G1 X157.306 Y124.245 E0.04455
G1 X156.684 Y125.289 E0.03810
G1 X155.690 Y126.232 E0.04297
G1 X150.322 Y129.337 E0.19444
G1 X149.106 Y129.721 E0.03997
G1 X147.714 Y129.755 E0.04366
G1 X146.362 Y129.380 E0.04401
G1 X141.552 Y126.616 E0.17393
G1 X136.560 Y129.498 E0.18072
G1 X135.102 Y129.916 E0.04757
G1 X133.763 Y129.886 E0.04199
G1 X132.515 Y129.500 E0.04095
G1 X127.125 Y126.388 E0.19514
G1 X121.733 Y129.501 E0.19524
G1 X120.481 Y129.892 E0.04112
G1 X119.201 Y129.929 E0.04016
G1 X117.690 Y129.511 E0.04914
G1 X112.325 Y126.414 E0.19423
G1 X111.832 Y125.950 E0.02124
G1 X106.696 Y128.909 E0.18584
G1 X105.410 Y129.292 E0.04208
G1 X104.125 Y129.308 E0.04031
G1 X102.694 Y128.897 E0.04667
G1 X97.330 Y125.801 E0.19418
G1 X96.104 Y124.549 E0.05493
G1 X95.604 Y123.566 E0.03461
G1 X95.340 Y122.466 E0.03546
G1 X95.320 Y116.121 E0.19894
G1 X95.694 Y114.650 E0.04758
G1 X96.357 Y113.550 E0.04028
G1 X97.318 Y112.650 E0.04128
G1 X101.828 Y110.041 E0.16338
G1 X97.609 Y107.580 E0.15316
G1 X96.670 Y106.638 E0.04171
G1 X96.101 Y105.646 E0.03584
G1 X95.782 Y104.512 E0.03692
G1 X95.741 Y98.032 E0.20321
G1 X96.021 Y96.770 E0.04051
G1 X96.688 Y95.553 E0.04352
G1 X97.566 Y94.668 E0.03908
G1 X98.867 Y93.892 E0.04750
G1 X98.114 Y93.444 E0.02746
G1 X97.173 Y92.548 E0.04074
G1 X96.520 Y91.452 E0.04002
G1 X96.182 Y90.194 E0.04082
G1 X96.163 Y83.755 E0.20189
G1 X96.528 Y82.340 E0.04584
G1 X97.109 Y81.341 E0.03623
G1 X98.062 Y80.402 E0.04195
G1 X103.516 Y77.233 E0.19775
G1 X104.853 Y76.829 E0.04379
G1 X106.210 Y76.825 E0.04257
G1 X107.532 Y77.214 E0.04320
G1 X112.315 Y79.970 E0.17309
G1 X117.588 Y76.923 E0.19096
G1 X118.978 Y76.519 E0.04538
G1 X120.281 Y76.523 E0.04085
G1 X121.522 Y76.883 E0.04051
G1 X125.614 Y79.229 E0.14789
G1 X130.890 Y76.188 E0.19094
G1 X132.204 Y75.801 E0.04294
G1 X133.568 Y75.803 E0.04277
G1 X134.907 Y76.209 E0.04386
G1 X140.243 Y79.290 E0.19318
G1 X140.820 Y79.818 E0.02454
G1 X140.860 Y80.371 F10800.000
G1 F1200
G1 X141.304 Y79.978 E0.01859
G1 X146.575 Y76.917 E0.19110
G1 X147.851 Y76.541 E0.04172
G1 X149.165 Y76.561 E0.04120
G1 X150.309 Y76.922 E0.03760
G1 X155.589 Y79.987 E0.19142
G1 X156.588 Y80.969 E0.04394
G1 X157.124 Y81.929 E0.03445
G1 X157.412 Y83.086 E0.03740
G1 X157.425 Y89.309 E0.19513
G1 X157.156 Y90.486 E0.03784
G1 X156.564 Y91.562 E0.03852
G1 X155.729 Y92.404 E0.03716
G1 X153.747 Y93.577 E0.07223
G1 X154.858 Y94.229 E0.04037
G1 X155.704 Y95.039 E0.03672
G1 X156.305 Y96.049 E0.03686
G1 X156.615 Y97.198 E0.03731
G1 X156.634 Y103.548 E0.19910
G1 X156.383 Y104.651 E0.03549
G1 X155.843 Y105.673 E0.03624
G1 X154.879 Y106.652 E0.04307
G1 X149.101 Y110.005 E0.20947
G1 X150.157 Y110.334 E0.03469
G1 X155.460 Y113.396 E0.19199
G1 X156.498 Y114.423 E0.04578
G1 X157.048 Y115.457 E0.03672
G1 X157.307 Y116.610 E0.03705
G1 X157.293 Y122.845 E0.19552
G1 X156.949 Y124.120 E0.04139
G1 X156.375 Y125.072 E0.03484
G1 X155.482 Y125.917 E0.03854
G1 X150.152 Y129.000 E0.19308
G1 X149.020 Y129.353 E0.03715
G1 X147.736 Y129.378 E0.04028
G1 X146.487 Y129.024 E0.04069
G1 X141.552 Y126.181 E0.17859
G1 X136.391 Y129.160 E0.18683
G1 X135.079 Y129.538 E0.04282
G1 X133.847 Y129.517 E0.03865
G1 X132.685 Y129.162 E0.03810
G1 X127.368 Y126.092 E0.19250
G1 X127.126 Y125.876 E0.01017
G1 X126.856 Y126.108 E0.01116
G1 X121.562 Y129.164 E0.19167
G1 X120.441 Y129.516 E0.03683
G1 X119.271 Y129.558 E0.03671
G1 X117.857 Y129.172 E0.04595
G1 X112.534 Y126.099 E0.19271
G1 X111.890 Y125.481 E0.02801
G1 X106.567 Y128.554 E0.19269
G1 X105.329 Y128.923 E0.04053
G1 X104.150 Y128.931 E0.03695
G1 X102.863 Y128.559 E0.04201
G1 X97.541 Y125.487 E0.19267
G1 X96.427 Y124.353 E0.04985
G1 X95.950 Y123.415 E0.03297
G1 X95.712 Y122.401 E0.03267
G1 X95.697 Y116.145 E0.19617
G1 X96.052 Y114.772 E0.04444
G1 X96.664 Y113.769 E0.03685
G1 X97.558 Y112.941 E0.03821
G1 X102.581 Y110.042 E0.18185
G1 X97.857 Y107.295 E0.17135
G1 X96.984 Y106.428 E0.03858
G1 X96.440 Y105.479 E0.03428
G1 X96.152 Y104.437 E0.03392
G1 X96.118 Y98.051 E0.20020
G1 X96.383 Y96.880 E0.03767
G1 X96.975 Y95.800 E0.03861
G1 X97.816 Y94.951 E0.03747
G1 X99.616 Y93.889 E0.06554
G1 X98.356 Y93.154 E0.04575
G1 X97.482 Y92.331 E0.03765
G1 X96.877 Y91.326 E0.03679
G1 X96.559 Y90.168 E0.03765
G1 X96.540 Y83.779 E0.20030
G1 X96.886 Y82.462 E0.04271
G1 X97.421 Y81.554 E0.03304
G1 X98.272 Y80.716 E0.03745
G1 X103.686 Y77.571 E0.19630
G1 X104.934 Y77.198 E0.04085
G1 X106.130 Y77.194 E0.03750
G1 X107.404 Y77.569 E0.04164
G1 X112.315 Y80.406 E0.17782
G1 X117.757 Y77.262 E0.19706
G1 X119.055 Y76.889 E0.04235
G1 X120.250 Y76.900 E0.03747
G1 X121.393 Y77.238 E0.03737
G1 X125.614 Y79.664 E0.15266
G1 X131.020 Y76.543 E0.19572
G1 X132.234 Y76.178 E0.03973
G1 X133.488 Y76.173 E0.03931
G1 X134.738 Y76.547 E0.04091
G1 X140.035 Y79.605 E0.19179
G1 X140.816 Y80.330 E0.03341
G1 F8640
G1 X141.304 Y79.978 E-0.13897
G1 X143.630 Y78.627 E-0.62103
G1 E-0.04000 F2100.00000
G1 Z0.800 F10800.000
G1 X141.951 Y107.579
G1 Z0.200
G1 E0.80000 F2100.00000
G1 F1200
G1 X145.821 Y109.807 E0.13999
G1 X146.828 Y110.105 E0.03293
G1 X141.278 Y113.309 E0.20093
G1 X136.941 Y110.805 E0.15701
G1 X141.081 Y108.403 E0.15007
G1 X141.908 Y107.620 E0.03570
G1 X142.007 Y108.046 F10800.000
G1 F1200
G1 X145.828 Y110.246 E0.13827
G1 X141.278 Y112.873 E0.16474
G1 X137.694 Y110.804 E0.12974
G1 X141.324 Y108.692 E0.13168
G1 X141.963 Y108.087 E0.02758
G1 F8640
G1 X144.837 Y109.692 E-0.76000
G1 E-0.04000 F2100.00000
G1 Z0.800 F10800.000
G1 X140.813 Y80.924
G1 Z0.200
G1 E0.80000 F2100.00000
G1 F1200
G1 X141.511 Y80.294 E0.02950
G1 X146.745 Y77.255 E0.18977
G1 X147.877 Y76.918 E0.03701
G1 X149.081 Y76.929 E0.03774
G1 X150.138 Y77.258 E0.03473
G1 X155.378 Y80.301 E0.18998
G1 X156.303 Y81.217 E0.04082
G1 X156.781 Y82.088 E0.03116
G1 X157.035 Y83.110 E0.03300
G1 X157.048 Y89.288 E0.19373
G1 X156.795 Y90.374 E0.03496
G1 X156.248 Y91.355 E0.03521
G1 X155.481 Y92.120 E0.03397
G1 X152.996 Y93.580 E0.09036
G1 X154.615 Y94.518 E0.05867
G1 X155.393 Y95.254 E0.03357
G1 X155.967 Y96.219 E0.03519
G1 X156.245 Y97.270 E0.03409
G1 X156.257 Y103.526 E0.19617
G1 X156.021 Y104.542 E0.03271
G1 X155.554 Y105.430 E0.03145
G1 X154.667 Y106.339 E0.03981
G1 X149.314 Y109.446 E0.19407
G1 X148.210 Y109.776 E0.03613
G1 X147.086 Y109.782 E0.03525
G1 X145.988 Y109.468 E0.03579
G1 X141.819 Y107.068 E0.15085
G1 X141.613 Y107.380 E0.01173
G1 X140.838 Y108.114 E0.03347
G1 X136.187 Y110.805 E0.16847
G1 X141.278 Y113.744 E0.18430
G1 X146.609 Y110.666 E0.19302
G1 X147.745 Y110.333 E0.03710
G1 X148.890 Y110.338 E0.03591
G1 X149.988 Y110.672 E0.03598
G1 X155.250 Y113.710 E0.19051
G1 X156.211 Y114.669 E0.04255
G1 X156.703 Y115.609 E0.03327
G1 X156.929 Y116.630 E0.03279
G1 X156.916 Y122.819 E0.19407
G1 X156.593 Y123.994 E0.03819
G1 X156.067 Y124.853 E0.03159
G1 X155.275 Y125.601 E0.03417
G1 X149.982 Y128.663 E0.19172
G1 X148.936 Y128.985 E0.03430
G1 X147.760 Y129.000 E0.03688
G1 X146.615 Y128.668 E0.03738
G1 X141.552 Y125.745 E0.18330
G1 X136.223 Y128.822 E0.19295
G1 X135.055 Y129.161 E0.03812
G1 X133.929 Y129.148 E0.03530
G1 X132.854 Y128.824 E0.03520
G1 X127.578 Y125.778 E0.19102
G1 X127.135 Y125.358 E0.01913
G1 X126.649 Y125.792 E0.02043
G1 X121.391 Y128.828 E0.19037
G1 X120.400 Y129.141 E0.03260
G1 X119.340 Y129.186 E0.03325
G1 X118.024 Y128.833 E0.04272
G1 X112.744 Y125.785 E0.19117
G1 X111.904 Y124.967 E0.03677
G1 X111.659 Y125.179 E0.01015
G1 X106.399 Y128.216 E0.19045
G1 X105.249 Y128.554 E0.03756
G1 X104.177 Y128.554 E0.03360
G1 X103.032 Y128.221 E0.03740
G1 X97.752 Y125.173 E0.19117
G1 X96.749 Y124.154 E0.04482
G1 X96.312 Y123.306 E0.02992
G1 X96.084 Y122.336 E0.03125
G1 X96.074 Y116.169 E0.19336
G1 X96.409 Y114.896 E0.04125
G1 X96.971 Y113.990 E0.03343
G1 X97.765 Y113.257 E0.03388
G1 X103.335 Y110.043 E0.20164
G1 X98.104 Y107.009 E0.18960
G1 X97.297 Y106.216 E0.03549
G1 X96.797 Y105.355 E0.03120
G1 X96.522 Y104.360 E0.03235
G1 X96.495 Y98.072 E0.19716
G1 X96.744 Y96.991 E0.03478
G1 X97.291 Y96.007 E0.03529
G1 X98.065 Y95.236 E0.03426
G1 X100.369 Y93.887 E0.08372
G1 X98.597 Y92.863 E0.06417
G1 X97.790 Y92.111 E0.03458
G1 X97.233 Y91.200 E0.03349
G1 X96.929 Y90.092 E0.03601
G1 X96.917 Y83.804 E0.19716
G1 X97.243 Y82.586 E0.03955
G1 X97.732 Y81.769 E0.02984
G1 X98.482 Y81.030 E0.03301
G1 X103.856 Y77.908 E0.19487
G1 X104.965 Y77.575 E0.03631
G1 X106.053 Y77.564 E0.03410
G1 X107.236 Y77.907 E0.03862
G1 X112.386 Y80.882 E0.18647
G1 X112.649 Y80.646 E0.01110
G1 X117.925 Y77.600 E0.19100
G1 X119.130 Y77.259 E0.03928
G1 X120.217 Y77.276 E0.03407
G1 X121.263 Y77.592 E0.03426
G1 X125.679 Y80.136 E0.15979
G1 X125.924 Y79.921 E0.01024
G1 X131.189 Y76.881 E0.19064
G1 X132.314 Y76.548 E0.03677
G1 X133.459 Y76.550 E0.03590
G1 X134.568 Y76.884 E0.03632
G1 X139.827 Y79.921 E0.19042
G1 X140.645 Y80.688 E0.03516
G1 X140.778 Y80.875 E0.00719
G1 X140.779 Y81.625 F10800.000
G1 F1200
G1 X141.054 Y81.215 E0.01547
G1 X141.718 Y80.609 E0.02819
G1 X146.914 Y77.592 E0.18839
G1 X147.956 Y77.288 E0.03401
G1 X148.996 Y77.298 E0.03264
G1 X149.968 Y77.596 E0.03186
G1 X155.167 Y80.615 E0.18851
G1 X156.016 Y81.464 E0.03764
G1 X156.438 Y82.246 E0.02786
G1 X156.658 Y83.133 E0.02867
G1 X156.671 Y89.266 E0.19230
G1 X156.435 Y90.260 E0.03203
G1 X155.934 Y91.145 E0.03189
G1 X155.234 Y91.834 E0.03079
G1 X152.246 Y93.581 E0.10851
G1 X154.407 Y94.833 E0.07828
G1 X155.113 Y95.508 E0.03064
G1 X155.628 Y96.386 E0.03190
G1 X155.874 Y97.340 E0.03090
G1 X155.880 Y103.504 E0.19326
G1 X155.660 Y104.431 E0.02986
G1 X155.234 Y105.228 E0.02835
G1 X154.456 Y106.026 E0.03494
G1 X149.144 Y109.108 E0.19255
G1 X148.129 Y109.407 E0.03319
G1 X147.164 Y109.412 E0.03028
G1 X146.114 Y109.112 E0.03422
G1 X141.686 Y106.556 E0.16031
G1 X141.333 Y107.126 E0.02105
G1 X140.629 Y107.799 E0.03053
G1 X135.242 Y110.917 E0.19517
G1 X136.060 Y111.167 E0.02683
G1 X141.333 Y114.212 E0.19093
M73 P2 R46
G1 X141.549 Y114.023 E0.00899
G1 X146.778 Y111.004 E0.18929
G1 X147.822 Y110.703 E0.03407
G1 X148.858 Y110.715 E0.03249
G1 X149.818 Y111.009 E0.03148
G1 X155.040 Y114.024 E0.18908
G1 X155.891 Y114.871 E0.03764
G1 X156.341 Y115.717 E0.03005
G1 X156.552 Y116.650 E0.03000
G1 X156.539 Y122.792 E0.19257
G1 X156.237 Y123.865 E0.03494
G1 X155.760 Y124.632 E0.02835
G1 X155.067 Y125.286 E0.02986
G1 X149.812 Y128.325 E0.19034
G1 X148.853 Y128.616 E0.03143
G1 X147.836 Y128.630 E0.03186
G1 X146.783 Y128.330 E0.03435
G1 X141.496 Y125.278 E0.19139
G1 X141.281 Y125.467 E0.00899
G1 X136.053 Y128.484 E0.18925
G1 X135.029 Y128.784 E0.03347
G1 X134.010 Y128.779 E0.03195
G1 X133.023 Y128.487 E0.03227
G1 X127.788 Y125.464 E0.18954
G1 X127.145 Y124.839 E0.02813
G1 X126.443 Y125.476 E0.02974
G1 X121.221 Y128.490 E0.18904
G1 X120.312 Y128.773 E0.02984
G1 X119.355 Y128.808 E0.03003
G1 X118.192 Y128.495 E0.03779
G1 X112.954 Y125.471 E0.18963
G1 X112.127 Y124.656 E0.03640
G1 X111.959 Y124.399 E0.00962
G1 X111.450 Y124.864 E0.02161
G1 X106.229 Y127.878 E0.18904
G1 X105.219 Y128.177 E0.03302
G1 X104.254 Y128.183 E0.03027
G1 X103.200 Y127.883 E0.03437
G1 X97.962 Y124.859 E0.18963
G1 X97.071 Y123.956 E0.03978
G1 X96.658 Y123.155 E0.02826
G1 X96.456 Y122.273 E0.02837
G1 X96.452 Y116.194 E0.19060
G1 X96.765 Y115.023 E0.03802
G1 X97.276 Y114.213 E0.03000
G1 X97.971 Y113.573 E0.02963
G1 X103.194 Y110.558 E0.18909
G1 X104.274 Y110.235 E0.03534
G1 X104.271 Y109.951 E0.00891
G1 X103.622 Y109.773 E0.02111
G1 X98.349 Y106.722 E0.19099
G1 X97.610 Y106.003 E0.03234
G1 X97.136 Y105.188 E0.02958
G1 X96.892 Y104.286 E0.02926
G1 X96.872 Y98.094 E0.19418
G1 X97.105 Y97.104 E0.03186
G1 X97.606 Y96.216 E0.03197
G1 X98.312 Y95.522 E0.03106
G1 X101.122 Y93.886 E0.10195
G1 X98.804 Y92.548 E0.08389
G1 X98.068 Y91.855 E0.03171
G1 X97.570 Y91.029 E0.03024
G1 X97.300 Y90.019 E0.03278
G1 X97.294 Y83.829 E0.19407
G1 X97.599 Y82.711 E0.03634
G1 X98.042 Y81.985 E0.02666
G1 X98.692 Y81.344 E0.02863
G1 X104.027 Y78.245 E0.19344
G1 X104.998 Y77.951 E0.03183
G1 X105.977 Y77.935 E0.03069
G1 X107.067 Y78.246 E0.03555
G1 X112.441 Y81.350 E0.19459
G1 X112.858 Y80.961 E0.01787
G1 X118.092 Y77.939 E0.18951
G1 X119.203 Y77.630 E0.03615
G1 X120.181 Y77.652 E0.03066
G1 X121.131 Y77.946 E0.03117
G1 X125.733 Y80.603 E0.16661
G1 X126.132 Y80.236 E0.01701
G1 X131.359 Y77.218 E0.18924
G1 X132.343 Y76.924 E0.03221
G1 X133.379 Y76.919 E0.03247
G1 X134.399 Y77.222 E0.03336
G1 X139.619 Y80.236 E0.18901
G1 X140.363 Y80.939 E0.03209
