; generated by PrusaSlicer 2.1.0+win64 on 2021-02-11 at 02:53:54 UTC

; 

; external perimeters extrusion width = 0.45mm
; perimeters extrusion width = 0.45mm
; infill extrusion width = 0.45mm
; solid infill extrusion width = 0.45mm
; top infill extrusion width = 0.40mm
; support material extrusion width = 0.35mm
; first layer extrusion width = 0.42mm

; external perimeters extrusion width = 0.45mm
; perimeters extrusion width = 0.45mm
; infill extrusion width = 0.45mm
; solid infill extrusion width = 0.45mm
; top infill extrusion width = 0.40mm
; support material extrusion width = 0.35mm
; first layer extrusion width = 0.42mm

M73 P0 R49
M201 X9000 Y9000 Z500 E10000 ; sets maximum accelerations, mm/sec^2
M203 X500 Y500 Z12 E120 ; sets maximum feedrates, mm/sec
M204 P2000 R1500 T2000 ; sets acceleration (P, T) and retract acceleration (R), mm/sec^2
M205 X10.00 Y10.00 Z0.20 E2.50 ; sets the jerk limits, mm/sec
M205 S0 T0 ; sets the minimum extruding and travel feed rate, mm/sec
M107
M862.3 P "MK2S" ; printer model check
M862.1 P0.4 ; nozzle diameter check
M115 U3.2.3 ; tell printer latest fw version
G90 ; use absolute coordinates
M83 ; extruder relative mode
M204 S2000 T1500 ; MK2 firmware only supports the old M204 format
M104 S215 ; set extruder temp
M140 S60 ; set bed temp
M190 S60 ; wait for bed temp
M109 S215 ; wait for extruder temp
G28 W ; home all without mesh bed level
G80 ; mesh bed leveling
G1 Y-3.0 F1000.0 ; go outside print area
G92 E0.0
G1 X60.0 E9.0  F1000.0 ; intro line
M73 P0 R49
G1 X100.0 E12.5 F1000.0 ; intro line
G92 E0.0
G21 ; set units to millimeters
G90 ; use absolute coordinates
M83 ; use relative distances for extrusion
M900 K30 ; Filament gcode
;BEFORE_LAYER_CHANGE
G92 E0.0
;0.2


G1 E-0.80000 F2100.00000
G1 Z0.600 F10800.000
;AFTER_LAYER_CHANGE
;0.2
G1 X99.897 Y71.565
G1 Z0.200
G1 E0.80000 F2100.00000
M204 S1000
G1 F1200
G1 X106.710 Y67.587 E0.24737
G1 X107.782 Y67.137 E0.03645
G1 X109.084 Y66.936 E0.04130
G1 X124.806 Y66.744 E0.49299
G1 X125.961 Y66.878 E0.03645
G1 X127.055 Y67.270 E0.03645
G1 X133.953 Y71.263 E0.24990
G1 X134.722 Y71.923 E0.03176
G1 X135.344 Y72.722 E0.03176
G1 X135.796 Y73.628 E0.03176
G1 X136.059 Y74.606 E0.03176
G1 X136.127 Y75.435 E0.02607
G1 X136.064 Y133.193 E1.81096
G1 X135.946 Y134.271 E0.03402
G1 X135.673 Y135.137 E0.02845
G1 X135.254 Y135.935 E0.02828
G1 X134.697 Y136.652 E0.02845
G1 X134.022 Y137.258 E0.02845
G1 X127.210 Y141.231 E0.24724
G1 X126.002 Y141.712 E0.04078
G1 X124.627 Y141.870 E0.04338
G1 X109.364 Y141.444 E0.47876
G1 X108.442 Y141.328 E0.02915
G1 X107.742 Y141.121 E0.02288
G1 X107.079 Y140.816 E0.02288
G1 X100.202 Y136.797 E0.24976
G1 X99.493 Y136.137 E0.03036
G1 X98.921 Y135.356 E0.03036
G1 X98.508 Y134.480 E0.03036
G1 X98.269 Y133.541 E0.03036
G1 X97.215 Y99.904 E1.05518
G1 X97.218 Y92.523 E0.23144
G1 X97.881 Y75.406 E0.53709
G1 X97.995 Y74.534 E0.02758
G1 X98.263 Y73.679 E0.02810
G1 X98.680 Y72.879 E0.02828
G1 X99.228 Y72.170 E0.02810
G1 X99.852 Y71.605 E0.02639
G1 F8640
G1 X102.692 Y69.941 E-0.76000
G1 E-0.04000 F2100.00000
G1 Z0.800 F10800.000
G1 X132.033 Y87.498
G1 Z0.200
G1 E0.80000 F2100.00000
G1 F1200
G1 X133.626 Y88.434 E0.05791
G1 X134.591 Y89.425 E0.04339
G1 X135.106 Y90.348 E0.03314
G1 X135.411 Y91.381 E0.03377
G1 X135.468 Y99.765 E0.26287
G1 X135.147 Y101.121 E0.04370
G1 X134.519 Y102.240 E0.04023
G1 X133.628 Y103.135 E0.03960
G1 X132.064 Y104.063 E0.05702
G1 X133.735 Y105.053 E0.06091
G1 X134.626 Y105.947 E0.03959
G1 X135.254 Y107.065 E0.04020
G1 X135.574 Y108.413 E0.04345
G1 X135.560 Y116.508 E0.25380
G1 X135.280 Y117.674 E0.03761
G1 X134.720 Y118.732 E0.03753
G1 X133.782 Y119.716 E0.04261
G1 X131.681 Y120.952 E0.07644
G1 X133.800 Y122.194 E0.07701
G1 X134.692 Y123.065 E0.03911
G1 X135.340 Y124.177 E0.04032
G1 X135.688 Y125.596 E0.04582
G1 X135.602 Y134.168 E0.26880
G1 X135.313 Y135.053 E0.02916
G1 X134.871 Y135.860 E0.02887
G1 X133.675 Y137.064 E0.05320
G1 X126.781 Y141.044 E0.24957
G1 X125.771 Y141.397 E0.03356
G1 X124.255 Y141.481 E0.04759
G1 X122.767 Y141.079 E0.04835
G1 X116.764 Y137.620 E0.21722
G1 X111.462 Y140.672 E0.19182
G1 X110.017 Y141.057 E0.04690
G1 X108.501 Y140.972 E0.04760
G1 X107.490 Y140.619 E0.03356
G1 X100.596 Y136.639 E0.24962
G1 X99.385 Y135.412 E0.05406
G1 X98.917 Y134.528 E0.03134
G1 X98.640 Y133.569 E0.03129
G1 X98.590 Y125.131 E0.26458
G1 X98.876 Y123.892 E0.03988
G1 X99.482 Y122.768 E0.04002
G1 X100.413 Y121.815 E0.04177
G1 X101.672 Y121.063 E0.04596
G1 X100.043 Y120.115 E0.05910
G1 X99.004 Y119.068 E0.04624
G1 X98.344 Y117.788 E0.04514
G1 X98.133 Y116.781 E0.03226
G1 X98.119 Y108.710 E0.25307
G1 X98.411 Y107.434 E0.04106
G1 X99.047 Y106.269 E0.04161
G1 X99.947 Y105.358 E0.04015
G1 X101.143 Y104.642 E0.04371
G1 X99.431 Y103.629 E0.06237
G1 X98.540 Y102.734 E0.03959
G1 X97.912 Y101.617 E0.04019
G1 X97.592 Y100.270 E0.04339
G1 X97.599 Y92.244 E0.25165
G1 X97.865 Y91.060 E0.03805
G1 X98.401 Y90.015 E0.03685
G1 X99.339 Y89.002 E0.04326
G1 X101.767 Y87.567 E0.08843
G1 X100.092 Y86.575 E0.06102
G1 X99.201 Y85.681 E0.03959
G1 X98.573 Y84.562 E0.04021
G1 X98.252 Y83.207 E0.04366
G1 X98.338 Y74.638 E0.26870
G1 X98.627 Y73.754 E0.02916
G1 X99.069 Y72.946 E0.02887
G1 X100.265 Y71.743 E0.05320
G1 X107.171 Y67.755 E0.25003
G1 X108.284 Y67.388 E0.03675
G1 X109.748 Y67.331 E0.04592
G1 X111.188 Y67.736 E0.04691
G1 X116.837 Y70.991 E0.20442
G1 X122.776 Y67.561 E0.21505
G1 X124.130 Y67.157 E0.04429
G1 X125.494 Y67.159 E0.04276
G1 X126.833 Y67.565 E0.04387
G1 X133.819 Y71.614 E0.25316
G1 X134.644 Y72.381 E0.03531
G1 X135.275 Y73.340 E0.03601
G1 X135.713 Y74.768 E0.04682
G1 X135.750 Y83.026 E0.25893
G1 X135.430 Y84.373 E0.04342
G1 X134.802 Y85.492 E0.04023
G1 X133.872 Y86.415 E0.04110
G1 X132.085 Y87.467 E0.06501
G1 X131.287 Y87.496 F10800.000
G1 F1200
G1 X133.412 Y88.745 E0.07729
G1 X134.302 Y89.669 E0.04021
G1 X134.751 Y90.477 E0.02899
G1 X135.034 Y91.411 E0.03061
G1 X135.090 Y99.744 E0.26127
G1 X134.787 Y101.007 E0.04071
G1 X134.205 Y102.031 E0.03694
G1 X133.380 Y102.850 E0.03646
G1 X131.317 Y104.063 E0.07501
G1 X133.487 Y105.337 E0.07890
G1 X134.312 Y106.157 E0.03646
G1 X134.894 Y107.180 E0.03691
G1 X135.197 Y108.435 E0.04049
G1 X135.183 Y116.484 E0.25236
G1 X134.920 Y117.562 E0.03479
G1 X134.428 Y118.492 E0.03300
G1 X133.567 Y119.405 E0.03931
G1 X130.934 Y120.954 E0.09580
G1 X133.555 Y122.482 E0.09512
G1 X134.381 Y123.280 E0.03603
G1 X134.981 Y124.295 E0.03697
G1 X135.310 Y125.617 E0.04271
G1 X135.234 Y134.080 E0.26537
G1 X134.973 Y134.887 E0.02660
G1 X134.553 Y135.656 E0.02747
G1 X133.465 Y136.750 E0.04837
G1 X126.609 Y140.708 E0.24822
G1 X125.674 Y141.031 E0.03102
G1 X124.268 Y141.103 E0.04414
G1 X122.891 Y140.722 E0.04478
G1 X116.764 Y137.184 E0.22183
G1 X111.339 Y140.315 E0.19639
G1 X110.005 Y140.679 E0.04335
G1 X108.598 Y140.607 E0.04416
G1 X107.663 Y140.284 E0.03102
G1 X100.806 Y136.325 E0.24825
G1 X99.704 Y135.209 E0.04916
G1 X99.274 Y134.404 E0.02863
G1 X99.010 Y133.489 E0.02985
G1 X98.962 Y125.194 E0.26009
G1 X99.238 Y124.002 E0.03837
G1 X99.800 Y122.973 E0.03678
G1 X100.664 Y122.098 E0.03854
G1 X102.419 Y121.062 E0.06390
G1 X100.255 Y119.802 E0.07852
G1 X99.294 Y118.825 E0.04296
G1 X98.692 Y117.641 E0.04163
G1 X98.506 Y116.725 E0.02930
G1 X98.496 Y108.732 E0.25063
G1 X98.772 Y107.544 E0.03823
G1 X99.334 Y106.515 E0.03676
G1 X100.198 Y105.641 E0.03854
G1 X101.889 Y104.641 E0.06159
G1 X99.679 Y103.344 E0.08034
G1 X98.855 Y102.525 E0.03646
G1 X98.272 Y101.502 E0.03691
G1 X97.969 Y100.248 E0.04044
G1 X97.976 Y92.265 E0.25029
G1 X98.212 Y91.209 E0.03394
G1 X98.698 Y90.249 E0.03372
G1 X99.555 Y89.312 E0.03982
G1 X102.510 Y87.565 E0.10764
G1 X100.340 Y86.291 E0.07892
G1 X99.515 Y85.471 E0.03646
G1 X98.933 Y84.448 E0.03692
G1 X98.630 Y83.187 E0.04065
G1 X98.706 Y74.726 E0.26530
G1 X98.967 Y73.919 E0.02660
G1 X99.387 Y73.150 E0.02747
G1 X100.475 Y72.057 E0.04837
G1 X107.342 Y68.092 E0.24862
G1 X108.375 Y67.755 E0.03407
G1 X109.730 Y67.709 E0.04250
G1 X111.061 Y68.092 E0.04343
G1 X116.837 Y71.426 E0.20911
G1 X122.946 Y67.899 E0.22120
G1 X124.160 Y67.534 E0.03973
G1 X125.413 Y67.529 E0.03931
G1 X126.664 Y67.903 E0.04092
G1 X133.578 Y71.905 E0.25048
G1 X134.370 Y72.641 E0.03391
G1 X134.944 Y73.523 E0.03299
G1 X135.344 Y74.850 E0.04346
G1 X135.373 Y83.004 E0.25567
G1 X135.070 Y84.258 E0.04044
G1 X134.488 Y85.281 E0.03693
G1 X133.625 Y86.129 E0.03793
G1 X131.339 Y87.466 E0.08303
G1 X130.539 Y87.494 F10800.000
G1 F1200
G1 X133.198 Y89.057 E0.09670
G1 X134.012 Y89.911 E0.03699
G1 X134.397 Y90.608 E0.02497
G1 X134.657 Y91.443 E0.02741
G1 X134.713 Y99.723 E0.25963
G1 X134.428 Y100.890 E0.03767
G1 X133.891 Y101.819 E0.03363
G1 X133.133 Y102.565 E0.03335
G1 X130.568 Y104.063 E0.09314
G1 X133.240 Y105.623 E0.09703
G1 X133.999 Y106.368 E0.03334
G1 X134.535 Y107.297 E0.03361
G1 X134.820 Y108.458 E0.03749
G1 X134.806 Y116.461 E0.25093
G1 X134.575 Y117.409 E0.03058
G1 X134.134 Y118.255 E0.02992
G1 X133.352 Y119.094 E0.03595
G1 X130.186 Y120.957 E0.11518
G1 X133.311 Y122.770 E0.11329
G1 X134.072 Y123.496 E0.03297
G1 X134.623 Y124.416 E0.03360
G1 X134.933 Y125.639 E0.03957
G1 X134.866 Y133.992 E0.26191
G1 X134.620 Y134.754 E0.02511
G1 X134.236 Y135.450 E0.02494
G1 X133.255 Y136.436 E0.04359
G1 X126.436 Y140.372 E0.24686
G1 X125.578 Y140.666 E0.02845
G1 X124.281 Y140.725 E0.04070
G1 X123.059 Y140.384 E0.03978
G1 X116.764 Y136.749 E0.22793
G1 X111.214 Y139.959 E0.20102
G1 X109.991 Y140.301 E0.03981
G1 X108.694 Y140.241 E0.04070
G1 X107.836 Y139.948 E0.02845
G1 X101.017 Y136.011 E0.24688
G1 X100.024 Y135.008 E0.04425
G1 X99.616 Y134.244 E0.02713
G1 X99.379 Y133.412 E0.02715
G1 X99.339 Y125.215 E0.25699
G1 X99.599 Y124.115 E0.03545
G1 X100.117 Y123.179 E0.03353
G1 X100.913 Y122.382 E0.03533
G1 X103.168 Y121.062 E0.08194
G1 X100.467 Y119.489 E0.09799
G1 X99.585 Y118.584 E0.03963
G1 X99.041 Y117.497 E0.03811
G1 X98.879 Y116.671 E0.02636
G1 X98.873 Y108.754 E0.24825
G1 X99.133 Y107.657 E0.03535
G1 X99.650 Y106.722 E0.03351
G1 X100.447 Y105.925 E0.03533
G1 X102.638 Y104.641 E0.07962
G1 X99.926 Y103.058 E0.09844
G1 X99.168 Y102.313 E0.03334
G1 X98.632 Y101.385 E0.03361
G1 X98.347 Y100.225 E0.03745
G1 X98.353 Y92.286 E0.24892
G1 X98.560 Y91.358 E0.02981
G1 X99.022 Y90.443 E0.03213
G1 X99.813 Y89.589 E0.03649
G1 X103.258 Y87.564 E0.12531
G1 X100.587 Y86.005 E0.09698
G1 X99.828 Y85.260 E0.03334
G1 X99.292 Y84.331 E0.03362
G1 X99.007 Y83.166 E0.03760
G1 X99.074 Y74.815 E0.26186
G1 X99.320 Y74.052 E0.02511
G1 X99.704 Y73.356 E0.02494
G1 X100.685 Y72.371 E0.04359
G1 X107.513 Y68.429 E0.24721
G1 X108.465 Y68.122 E0.03134
G1 X109.711 Y68.086 E0.03908
G1 X110.892 Y68.429 E0.03857
G1 X116.837 Y71.862 E0.21523
G1 X123.115 Y68.237 E0.22731
G1 X124.240 Y67.904 E0.03677
G1 X125.385 Y67.906 E0.03590
G1 X126.494 Y68.240 E0.03632
G1 X133.338 Y72.197 E0.24788
G1 X134.067 Y72.867 E0.03105
G1 X134.613 Y73.705 E0.03136
G1 X134.975 Y74.930 E0.04005
G1 X134.996 Y82.981 E0.25244
G1 X134.711 Y84.141 E0.03744
G1 X134.175 Y85.069 E0.03362
G1 X133.379 Y85.842 E0.03478
G1 X130.591 Y87.464 E0.10114
G1 X129.788 Y87.493 F10800.000
G1 F1200
G1 X132.945 Y89.338 E0.11465
G1 X133.695 Y90.117 E0.03391
G1 X134.045 Y90.742 E0.02247
G1 X134.280 Y91.475 E0.02413
G1 X134.336 Y99.701 E0.25794
G1 X134.069 Y100.772 E0.03459
G1 X133.580 Y101.606 E0.03031
G1 X132.887 Y102.277 E0.03025
G1 X129.816 Y104.063 E0.11139
G1 X132.995 Y105.910 E0.11528
G1 X133.687 Y106.582 E0.03025
G1 X134.176 Y107.416 E0.03030
G1 X134.443 Y108.481 E0.03444
G1 X134.429 Y116.437 E0.24945
G1 X134.215 Y117.294 E0.02770
G1 X133.813 Y118.055 E0.02699
G1 X133.097 Y118.815 E0.03273
G1 X129.435 Y120.958 E0.13304
G1 X133.069 Y123.060 E0.13162
G1 X133.764 Y123.715 E0.02994
G1 X134.265 Y124.538 E0.03022
G1 X134.556 Y125.661 E0.03638
G1 X134.498 Y133.905 E0.25849
G1 X134.281 Y134.588 E0.02248
G1 X133.918 Y135.245 E0.02352
G1 X133.045 Y136.121 E0.03880
G1 X126.264 Y140.036 E0.24548
G1 X125.482 Y140.300 E0.02588
G1 X124.352 Y140.354 E0.03549
G1 X123.226 Y140.045 E0.03658
G1 X116.764 Y136.313 E0.23399
G1 X111.046 Y139.620 E0.20708
G1 X109.920 Y139.929 E0.03661
G1 X108.790 Y139.876 E0.03549
G1 X108.008 Y139.612 E0.02588
G1 X101.227 Y135.697 E0.24550
G1 X100.342 Y134.804 E0.03940
G1 X99.973 Y134.121 E0.02435
G1 X99.749 Y133.333 E0.02568
G1 X99.716 Y125.237 E0.25386
G1 X99.959 Y124.230 E0.03249
G1 X100.432 Y123.388 E0.03026
G1 X101.160 Y122.668 E0.03213
G1 X103.918 Y121.062 E0.10005
G1 X100.680 Y119.177 E0.11749
G1 X99.878 Y118.344 E0.03625
G1 X99.391 Y117.354 E0.03457
G1 X99.253 Y116.620 E0.02344
G1 X99.250 Y108.777 E0.24591
G1 X99.493 Y107.772 E0.03242
G1 X99.966 Y106.931 E0.03025
G1 X100.694 Y106.210 E0.03213
G1 X103.389 Y104.641 E0.09778
G1 X100.172 Y102.771 E0.11668
G1 X99.479 Y102.099 E0.03025
G1 X98.991 Y101.266 E0.03029
G1 X98.724 Y100.202 E0.03441
G1 X98.730 Y92.308 E0.24750
G1 X98.922 Y91.465 E0.02708
G1 X99.345 Y90.640 E0.02909
G1 X100.068 Y89.868 E0.03318
G1 X104.008 Y87.563 E0.14310
G1 X100.832 Y85.718 E0.11516
G1 X100.140 Y85.046 E0.03025
G1 X99.651 Y84.212 E0.03030
G1 X99.384 Y83.144 E0.03451
G1 X99.442 Y74.901 E0.25846
G1 X99.659 Y74.218 E0.02248
G1 X100.022 Y73.561 E0.02352
G1 X100.895 Y72.685 E0.03880
G1 X107.684 Y68.766 E0.24578
G1 X108.554 Y68.489 E0.02861
G1 X109.636 Y68.457 E0.03394
G1 X110.724 Y68.768 E0.03549
G1 X116.837 Y72.297 E0.22132
G1 X123.285 Y68.574 E0.23345
G1 X124.269 Y68.280 E0.03221
G1 X125.305 Y68.275 E0.03247
G1 X126.325 Y68.578 E0.03336
G1 X133.100 Y72.490 E0.24530
G1 X133.765 Y73.094 E0.02816
G1 X134.282 Y73.888 E0.02973
G1 X134.598 Y74.958 E0.03497
G1 X134.619 Y82.958 E0.25085
G1 X134.352 Y84.022 E0.03438
G1 X133.863 Y84.855 E0.03029
G1 X133.135 Y85.554 E0.03165
G1 X129.840 Y87.463 E0.11941
G1 X129.035 Y87.492 F10800.000
G1 F1200
G1 X132.693 Y89.620 E0.13270
M73 P2 R48
G1 X133.379 Y90.324 E0.03083
G1 X133.693 Y90.880 E0.02003
G1 X133.903 Y91.508 E0.02076
G1 X133.959 Y99.679 E0.25620
G1 X133.710 Y100.651 E0.03144
G1 X133.270 Y101.390 E0.02697
G1 X132.644 Y101.989 E0.02718
G1 X129.063 Y104.063 E0.12975
G1 X132.751 Y106.199 E0.13364
G1 X133.377 Y106.798 E0.02718
G1 X133.818 Y107.537 E0.02696
G1 X134.066 Y108.505 E0.03134
G1 X134.052 Y116.412 E0.24793
G1 X133.856 Y117.177 E0.02477
G1 X133.493 Y117.854 E0.02406
G1 X132.843 Y118.535 E0.02953
G1 X128.682 Y120.960 E0.15100
G1 X132.828 Y123.351 E0.15007
G1 X133.457 Y123.936 E0.02694
G1 X133.908 Y124.663 E0.02681
G1 X134.179 Y125.685 E0.03314
G1 X134.130 Y133.818 E0.25502
G1 X133.928 Y134.455 E0.02097
G1 X133.602 Y135.038 E0.02093
G1 X132.835 Y135.807 E0.03407
G1 X126.093 Y139.700 E0.24409
G1 X125.389 Y139.934 E0.02324
G1 X124.366 Y139.976 E0.03210
G1 X123.395 Y139.706 E0.03162
G1 X116.763 Y135.878 E0.24008
G1 X110.878 Y139.282 E0.21317
G1 X109.905 Y139.551 E0.03164
G1 X108.883 Y139.509 E0.03210
G1 X108.179 Y139.275 E0.02324
G1 X101.437 Y135.383 E0.24410
G1 X100.661 Y134.601 E0.03453
G1 X100.315 Y133.961 E0.02282
G1 X100.119 Y133.257 E0.02290
G1 X100.093 Y125.259 E0.25077
G1 X100.318 Y124.346 E0.02949
G1 X100.745 Y123.599 E0.02698
G1 X101.406 Y122.954 E0.02895
G1 X104.671 Y121.062 E0.11833
G1 X100.930 Y118.894 E0.13557
G1 X100.203 Y118.150 E0.03264
G1 X99.742 Y117.213 E0.03275
G1 X99.627 Y116.571 E0.02044
G1 X99.627 Y108.800 E0.24365
G1 X99.852 Y107.889 E0.02944
G1 X100.279 Y107.142 E0.02697
G1 X100.940 Y106.497 E0.02895
G1 X104.143 Y104.641 E0.11606
G1 X100.416 Y102.483 E0.13504
G1 X99.789 Y101.883 E0.02718
G1 X99.349 Y101.145 E0.02696
G1 X99.101 Y100.178 E0.03131
G1 X99.107 Y92.330 E0.24605
G1 X99.283 Y91.575 E0.02431
G1 X99.667 Y90.838 E0.02605
G1 X100.323 Y90.147 E0.02988
G1 X104.760 Y87.562 E0.16101
G1 X101.076 Y85.429 E0.13347
G1 X100.450 Y84.830 E0.02718
G1 X100.009 Y84.091 E0.02696
G1 X99.761 Y83.122 E0.03138
G1 X99.810 Y74.988 E0.25502
G1 X100.012 Y74.351 E0.02097
G1 X100.338 Y73.768 E0.02093
G1 X101.105 Y72.999 E0.03407
G1 X107.854 Y69.103 E0.24433
G1 X108.640 Y68.857 E0.02581
G1 X109.615 Y68.834 E0.03058
G1 X110.555 Y69.106 E0.03068
G1 X116.837 Y72.732 E0.22743
G1 X123.453 Y68.912 E0.23956
G1 X124.348 Y68.650 E0.02923
G1 X125.276 Y68.652 E0.02909
G1 X126.155 Y68.915 E0.02878
G1 X132.893 Y72.806 E0.24395
